!!!OTL: Tantas Idas y venidas
**kern
*I"Guitarra acústica
*I'Guit. ac.
!!pagebreak:original
*clefG2
*Trd0c0
*k[f#c#]
*D:
*M6/8
!LO:TX:t=[quarter]=120
16aaLL
16aa
16aa
16aaJJ
=1!|:
8aaL
8gg
8ff#J
8eeL
8dd
8ddJ
=2
4.cc#
8r
16aaLL
16aa
16aa
16aaJJ
=3
8aaL
8gg
8ff#J
8aaL
8gg
8ff#J
=4
4.dd
8r
16aaLL
16aa
16aa
16aaJJ
!!linebreak:original
=5:|!
4.dd
4.dd
=6!|:
8aL
8b
8cc#J
8ddL
8ee
8ff#J
=7
8aaL
8gg
8ff#J
4.aa
=8
8eeL
8gg
8ff#J
8aaL
8gg
8eeJ
=9
4.dd
4.dd
!!linebreak:original
=10:|!
4.dd
8r
4a
=11
4.dd
8r
4a
=12
(4.dd
4dd)
8r
=13!|:
8bL
8b
8bJ
8bL
8.b
16aJk
=14
8bL
(8gJ
2g)
!!linebreak:original
=15
8.bL
16bk
8aJ
8bL
8a
8bJ
=16
(2a
4f#)
=17
8dL
8d
8eJ
8f#L
8e
8f#J
=18
4a
4a
8eL
8eJ
=19
4a
8a
4a
8g
!!linebreak:original
=20
(4.f#
4f#)
8r
=21
8dL
8d
8eJ
8f#L
8e
8f#J
=22
4a
4a
8eL
8eJ
=23
4a
8a
4a
8g
=24
(4.f#
4f#)
!LO:TX:a:B:t=Fine
8r
!!linebreak:original
=25:|!
8.gL
16ddk
8bJ
8ddL
8b
8aJ
=26
4b
2b
=27
8.bL
16bk
8aJ
8bL
8a
8bJ
=28
(4b
2a)
=29
8dL
8d
8eJ
8f#L
8e
8f#J
!!linebreak:original
=30
4a
4a
8eL
8eJ
=31
4a
8a
4a
8e
=32
(4.d
4d)
8r
=33
8dL
8d
8eJ
8f#L
8e
8f#J
=34
4a
4a
8eL
8eJ
!!linebreak:original
=35
4a
8a
4a
8e
=36
(4.d
4d)
!LO:TX:a:B:t=D.S. al Fine
8r
==
*-